X: 22539
T: Lady Harriet Hope
R: reel
M: 4/4
K: Dmajor
DFAd A2GF|d2 fe/d/ eEEF|DFAB A2 GF|GEAF DD D2:|
dAde (d/e/f) ed|cAeA fAeA|dAde d/e/f ed|Adc/d/e dd d2|
dAde d/e/f ed|edef gedf|dBAG F2 dB|AFGE DD D2||

